src/assets/icons/volume-middle.svg

<svg widh="100%" height="100%" viewBox="0 0 24 24" fill="current"
  xmlns="http://www.w3.org/2000/svg">
  <path d="M9.58078 4.43141C10.0595 3.9832 10.4519 4.13528 10.4519 4.76929V19.2305C10.4519 19.8647 10.0595 20.0168 9.58078 19.5684L5.07417 15.3535H2.08696V8.64685H5.07417L9.58078 4.43141ZM12.3382 16.0001C12.1089 16.0001 11.8792 15.9185 11.7039 15.7546C11.3537 15.427 11.3537 14.896 11.7039 14.569C13.218 13.1527 13.218 10.8484 11.7039 9.43217C11.3537 9.10463 11.3537 8.57368 11.7039 8.24653C12.0541 7.91937 12.6216 7.91937 12.9714 8.24653C15.1846 10.3171 15.1846 13.6852 12.9714 15.7553C12.7969 15.9178 12.5676 16.0001 12.3382 16.0001ZM15.5216 17.5808C15.2919 17.5808 15.0625 17.4991 14.8872 17.3353C14.5374 17.0076 14.5374 16.4767 14.8872 16.1495C17.3334 13.8617 17.3334 10.139 14.8872 7.85119C14.5374 7.52365 14.5374 6.9927 14.8872 6.66555C15.2374 6.33801 15.805 6.33801 16.1547 6.66555C17.6787 8.08984 18.5178 9.98495 18.5178 12C18.5178 14.0155 17.6787 15.91 16.1551 17.3353C15.9804 17.4991 15.751 17.5808 15.5216 17.5808Z"/>
</svg>

<svg xmlns="http://www.w3.org/2000/svg" fill="currentColor" viewBox="0 0 24 24">
  <path d="M9.58 4.431c.48-.448.872-.296.872.338V19.23c0 .635-.393.787-.871.338l-4.507-4.215H2.087V8.648h2.987L9.581 4.43Zm2.758 11.57a.927.927 0 0 1-.634-.246.8.8 0 0 1 0-1.186c1.514-1.416 1.514-3.72 0-5.137a.8.8 0 0 1 0-1.185.941.941 0 0 1 1.267 0c2.214 2.07 2.214 5.438 0 7.508a.929.929 0 0 1-.633.245Zm3.184 1.58a.927.927 0 0 1-.635-.246.801.801 0 0 1 0-1.186c2.446-2.287 2.446-6.01 0-8.298a.801.801 0 0 1 0-1.185.94.94 0 0 1 1.268 0C17.679 8.09 18.518 9.985 18.518 12c0 2.015-.84 3.91-2.363 5.335a.924.924 0 0 1-.633.246Z"/>
</svg>
